X: 1
T: Tam Lin
T: The Howling Wind
T: The Glasgow Reel
C: Davey Arthur
S: Elke Baker's version
Z: John Chambers <jc:trillian.mit.edu>
M: C|
L: 1/8
K: Am
(F \
| "Am"~E2) AE cEAE | "F"~F2 AF cFAF | "G"~G2 BG dGBd | "Am"cBAG "G"AGED |
| "Am"~E2 AE cEAE | "F"~F2 AF cFAF | "G"~G2 BG dGBd | "G"cBAG "Am"A3 :|
|: (g \
| "Am"a)ged c2A(g | "Am"a)ged c2A(^f | "G"~g2)dg Bgdg | ~g2dg Bgdg |
| "Am"aged c2Ag | aged c2AG | "F"FEFG AGAB | "G"cBAG "Am"A3 :|
